X: 34967
T: Rod Alexander's
R: reel
M: 4/4
K: Adorian
|:"Am"A2 cB A<EGE|ABcB AcBA|"G"G2 BA "C"G<EDE|"G"GABG "Em"A2 GE|
"Am"A2 cB A<EGE|ABcB AcBA|"G"gedB g<Bdg|"C"ec"G"dB "Am"A2 A2:|
|:"Am"A<aag a<eea|"Em"gabg "Am"a2 ge|"G"d<gga "C"g<ede|"G"gabg "Em"e2 dB|
"Am"e<aag a<eea|"Em"gabg "Am"a2 Bd|"G"gedB g<Bdg|"C"ec"G"dB "Am"A2 AB:|

